!! 00000] TT[00
!! NN
!!!OTL: Feng jun zhuang
!!!ARE: Asia, China,ÿHebei, Jinxian
!! Ethnic Group: Han
!! IV, 48
!!!SCT: C0374
!!!YEM: Copyright 1995, estate of Helmut Schaffrath.
**kern
*ICvox
*Ivox
!! Mixed meters:  4/4; 3/4; 2/4
*M3/4
*k[f#c#g#]
*A:
{4cc#
8ee
8b
2cc#
=1
8.b
16cc#
8ee
16ff#
16aa
16ff#
16ee
16cc#
16b
8a
8f#
=2
8.ee
16cc#
8b
4.b}
=3
*M4/4
{4cc#
8ee
8b
2cc#
=4
8b
8cc#
8ee
16ff#
16aa
16ff#
16ee
16cc#
16b
8a
8f#
=5
*M3/4
8.ee
16cc#
8b
4b
16b
16cc#}
=6
*M4/4
{16a
16c#
4e
16a
16f#
4a
8b
16ee
16cc#
=7
8b
8a
16a
16b
16cc#
16b
8a
4.a}
=8
{8b
4b
16ee
16cc#
16b
16a
4f#
8a
=9
*M3/4
8ee
16f#
16a
16ee
16cc#
4b}
{8cc#
=10
8ff#
16ee
16cc#
16b
16cc#
4ee
16ff#
16aa
=11
*M2/4
16ff#
16ee
16cc#
16b
8a
8f#
=12
8a
16a
16cc#
16b
16a
8f#
=13
2e}
==
!!!AGN: Xiaodiao, Yueyawugeng diao. Geming lishi minge
!! vor allem durch Verzierungen stark arrangiert.
!!   , In der Vorlage vereinzelt Verzierungen. )   Phrasierung?
!!!ONB: ESAC (Essen Associative Code) Database: CHINA
!!!AMT: irregular
!!!AIN: vox
!!!EED: Helmut Schaffrath
!!!EEV: 1.0
*-
